packages/symbols/svgs/solid/smile-solid.svg

<svg width="16" height="16" viewBox="0 0 16 16" xmlns="http://www.w3.org/2000/svg"><g clip-path="url(#a)"><path d="M8 0C3.6 0 0 3.6 0 8s3.6 8 8 8 8-3.6 8-8-3.6-8-8-8Zm2 5c.6 0 1 .4 1 1s-.4 1-1 1-1-.4-1-1 .4-1 1-1ZM6 5c.6 0 1 .4 1 1s-.4 1-1 1-1-.4-1-1 .4-1 1-1Zm6.8 4.2C12.3 11.5 10.3 13 8 13s-4.3-1.5-4.8-3.7c-.2-.6.1-1.1.7-1.3.5-.1 1.1.2 1.2.8C5.4 10.1 6.6 11 8 11s2.6-.9 2.9-2.2c.1-.6.7-.9 1.2-.8.6.2.9.7.7 1.2Z"/></g><defs><clipPath id="a"><path fill="#fff" d="M0 0h16v16H0z"/></clipPath></defs></svg>

<svg width="16" height="16" viewBox="0 0 16 16" fill="none" xmlns="http://www.w3.org/2000/svg">
<g clip-path="url(#clip0_219_1992)">
<path d="M8 0C3.6 0 0 3.6 0 8C0 12.4 3.6 16 8 16C12.4 16 16 12.4 16 8C16 3.6 12.4 0 8 0ZM10 5C10.6 5 11 5.4 11 6C11 6.6 10.6 7 10 7C9.4 7 9 6.6 9 6C9 5.4 9.4 5 10 5ZM6 5C6.6 5 7 5.4 7 6C7 6.6 6.6 7 6 7C5.4 7 5 6.6 5 6C5 5.4 5.4 5 6 5ZM12.8 9.2C12.3 11.5 10.3 13 8 13C5.7 13 3.7 11.5 3.2 9.3C3 8.7 3.3 8.2 3.9 8C4.4 7.9 5 8.2 5.1 8.8C5.4 10.1 6.6 11 8 11C9.4 11 10.6 10.1 10.9 8.8C11 8.2 11.6 7.9 12.1 8C12.7 8.2 13 8.7 12.8 9.2Z" fill="black"/>
</g>
<defs>
<clipPath id="clip0_219_1992">
<rect width="16" height="16" fill="white"/>
</clipPath>
</defs>
</svg>
